assets/images/teacher.svg

<svg width="24" height="24" viewBox="0 0 24 24" fill="none" xmlns="http://www.w3.org/2000/svg">
<path d="M6.0094 13.0801L6 17.8148C6 19.0969 6.92163 20.4699 8.05016 20.8737L11.0502 21.9438C11.5674 22.1255 12.4232 22.1255 12.9498 21.9438L15.9498 20.8737C17.0784 20.4699 18 19.0969 18 17.8148V13.1306" stroke="#C6AAFF" stroke-width="1.5" stroke-linecap="round" stroke-linejoin="round"/>
<path d="M21 15V9" stroke="#C6AAFF" stroke-width="1.5" stroke-linecap="round" stroke-linejoin="round"/>
<path d="M10.1355 2.52143L4.38315 6.37876C2.53895 7.61546 2.53895 10.3833 4.38315 11.62L10.1355 15.4773C11.1675 16.1742 12.8683 16.1742 13.9003 15.4773L19.624 11.62C21.4587 10.3833 21.4587 7.62528 19.624 6.38858L13.9003 2.53125C12.8683 1.82456 11.1675 1.82456 10.1355 2.52143Z" fill="#F3EDFF" stroke="#8447FF" stroke-width="1.5" stroke-linecap="round" stroke-linejoin="round"/>
</svg>

<svg width="24" height="24" fill="none" xmlns="http://www.w3.org/2000/svg"><path d="M6.01 13.08 6 17.815c0 1.282.922 2.655 2.05 3.059l3 1.07c.517.181 1.373.181 1.9 0l3-1.07c1.128-.404 2.05-1.777 2.05-3.06v-4.683M21 15V9" stroke="#C6AAFF" stroke-width="1.5" stroke-linecap="round" stroke-linejoin="round"/><path d="M10.136 2.521 4.383 6.38c-1.844 1.236-1.844 4.004 0 5.241l5.753 3.857c1.032.697 2.732.697 3.764 0l5.724-3.857c1.835-1.237 1.835-3.995 0-5.231L13.9 2.53c-1.032-.706-2.732-.706-3.764-.01Z" fill="#F3EDFF" stroke="#8447FF" stroke-width="1.5" stroke-linecap="round" stroke-linejoin="round"/></svg>
